assets/icons/24px/stroke/tree-map-left-24px.svg

<svg width="24" height="24" viewBox="0 0 24 24" fill="none" xmlns="http://www.w3.org/2000/svg">
<g clip-path="url(#clip0_878_24456)">
<g clip-path="url(#clip1_878_24456)">
<path fill-rule="evenodd" clip-rule="evenodd" d="M13 11L13 9.5C13 9.47799 13 9.45604 13 9.43417C13.0001 8.54769 13.0001 7.78387 12.9179 7.17221C12.8297 6.5167 12.631 5.88835 12.1213 5.37868C11.6117 4.86902 10.9833 4.67028 10.3278 4.58215C9.71613 4.49991 8.95232 4.49995 8.06583 4.5L8 4.5L8 6.5C8.97108 6.5 9.59879 6.50213 10.0613 6.56431C10.495 6.62263 10.631 6.71677 10.7071 6.7929C10.7832 6.86902 10.8774 7.00497 10.9357 7.43871C10.9979 7.90122 11 8.52893 11 9.5L11 14.5C11 15.4711 10.9979 16.0988 10.9357 16.5613C10.8774 16.995 10.7832 17.131 10.7071 17.2071C10.631 17.2832 10.495 17.3774 10.0613 17.4357C9.59879 17.4979 8.97108 17.5 8 17.5L8 19.5L8.06583 19.5C8.95232 19.5001 9.71613 19.5001 10.3278 19.4179C10.9833 19.3297 11.6117 19.131 12.1213 18.6213C12.631 18.1117 12.8297 17.4833 12.9179 16.8278C13.0001 16.2161 13.0001 15.4523 13 14.5658L13 13L16 13L16 11L13 11Z" fill="white"/>
<path fill-rule="evenodd" clip-rule="evenodd" d="M20 12C20 11.1716 19.3284 10.5 18.5 10.5C17.6716 10.5 17 11.1716 17 12C17 12.8284 17.6716 13.5 18.5 13.5C19.3284 13.5 20 12.8284 20 12ZM18.5 8.5C20.433 8.5 22 10.067 22 12C22 13.933 20.433 15.5 18.5 15.5C16.567 15.5 15 13.933 15 12C15 10.067 16.567 8.5 18.5 8.5Z" fill="white"/>
<path fill-rule="evenodd" clip-rule="evenodd" d="M7 5.5C7 4.67157 6.32843 4 5.5 4C4.67157 4 4 4.67157 4 5.5C4 6.32843 4.67157 7 5.5 7C6.32843 7 7 6.32843 7 5.5ZM5.5 2C7.433 2 9 3.567 9 5.5C9 7.433 7.433 9 5.5 9C3.567 9 2 7.433 2 5.5C2 3.567 3.567 2 5.5 2Z" fill="white"/>
<path fill-rule="evenodd" clip-rule="evenodd" d="M7 18.5C7 17.6716 6.32843 17 5.5 17C4.67157 17 4 17.6716 4 18.5C4 19.3284 4.67157 20 5.5 20C6.32843 20 7 19.3284 7 18.5ZM5.5 15C7.433 15 9 16.567 9 18.5C9 20.433 7.433 22 5.5 22C3.567 22 2 20.433 2 18.5C2 16.567 3.567 15 5.5 15Z" fill="white"/>
</g>
</g>
<defs>
<clipPath id="clip0_878_24456">
<rect width="24" height="24" fill="white"/>
</clipPath>
<clipPath id="clip1_878_24456">
<rect width="24" height="24" fill="white" transform="translate(24) rotate(90)"/>
</clipPath>
</defs>
</svg>

<svg width="24" height="24" fill="none" xmlns="http://www.w3.org/2000/svg"><g clip-path="url(#clip0_878_24456)"><g clip-path="url(#clip1_878_24456)" fill-rule="evenodd" clip-rule="evenodd" fill="#fff"><path d="M13 11V9.5v-.066c0-.886 0-1.65-.082-2.262-.088-.655-.287-1.284-.797-1.793-.51-.51-1.138-.709-1.793-.797C9.716 4.5 8.952 4.5 8.066 4.5H8v2c.971 0 1.599.002 2.061.064.434.059.57.153.646.229.076.076.17.212.229.646.062.462.064 1.09.064 2.061v5c0 .971-.002 1.599-.064 2.061-.059.434-.153.57-.229.646-.076.076-.212.17-.646.229-.462.062-1.09.064-2.061.064v2h.066c.886 0 1.65 0 2.262-.082.655-.088 1.284-.287 1.793-.797.51-.51.709-1.138.797-1.793.082-.612.082-1.376.082-2.262V13h3v-2h-3z"/><path d="M20 12a1.5 1.5 0 1 0-3 0 1.5 1.5 0 0 0 3 0zm-1.5-3.5a3.5 3.5 0 1 1 0 7 3.5 3.5 0 0 1 0-7zM7 5.5a1.5 1.5 0 1 0-3 0 1.5 1.5 0 0 0 3 0zM5.5 2a3.5 3.5 0 1 1 0 7 3.5 3.5 0 0 1 0-7zM7 18.5a1.5 1.5 0 1 0-3 0 1.5 1.5 0 0 0 3 0zM5.5 15a3.5 3.5 0 1 1 0 7 3.5 3.5 0 0 1 0-7z"/></g></g><defs><clipPath id="clip0_878_24456"><path fill="#fff" d="M0 0H24V24H0z"/></clipPath><clipPath id="clip1_878_24456"><path fill="#fff" transform="rotate(90 12 12)" d="M0 0H24V24H0z"/></clipPath></defs></svg>
